images/iconography/naming-do2.svg

<svg xmlns="http://www.w3.org/2000/svg" width="300" height="96" style="background:#fff" viewBox="0 0 300 96">
  <g fill="#0C0C0D" fill-rule="evenodd" transform="translate(56 32)">
    <path fill-opacity=".8" fill-rule="nonzero" d="M19.6071529,11.6438563 L18.9345148,10.2930081 L15.8000411,3.99808844 L11.9940335,11.6436082 L10.5085543,11.9090289 L3.78598869,13.1101625 L9.61027926,19.3737657 L9.41291152,20.7868007 L8.41008294,27.9664448 L15.7992721,24.1147901 L17.1858596,24.8373764 L23.1904655,27.9665421 L21.9882881,19.37378 L22.9604934,18.3285757 L27.8151874,13.1093642 L19.6071529,11.6438563 Z M29.7859925,10.4138 C30.5757976,10.5518 31.2296362,11.1138 31.485573,11.8798 C31.7415099,12.6458 31.5595548,13.4898 31.0096905,14.0798 L25.157135,20.3718 L26.376834,29.0898 C26.4908059,29.9118 26.1408922,30.7158 25.465059,31.1938 C24.7872263,31.6698 23.9074435,31.7258 23.1796231,31.3438 L15.7994447,27.4978 L8.41726683,31.3458 C8.0973458,31.5138 7.74743217,31.5958 7.40151755,31.5958 C6.95762711,31.5958 6.51573618,31.4618 6.13582995,31.1938 C5.45799725,30.7158 5.11008313,29.9118 5.22405499,29.0898 L6.44175444,20.3718 L0.589198985,14.0778 C0.0393347043,13.4898 -0.142620385,12.6458 0.11531595,11.8798 C0.371252779,11.1138 1.0250914,10.5518 1.82089497,10.4138 L9.9808809,8.9558 L13.8319304,1.2198 C14.2038386,0.4678 14.959652,0.0018 15.7994447,0.0018 C16.641237,0.0018 17.3950509,0.4678 17.7689586,1.2218 L21.6200081,8.9558 L29.7859925,10.4138 Z"/>
    <path d="M47.185,15.3287032 C47.7150027,16.0537068 47.98,17.0661967 47.98,18.3662032 C47.98,19.1862073 47.8550013,19.9087001 47.605,20.5337032 C47.3549988,21.1587063 46.9950024,21.6437015 46.525,21.9887032 C46.0549976,22.3337049 45.5050032,22.5062032 44.875,22.5062032 C44.0449958,22.5062032 43.3450029,22.1562067 42.775,21.4562032 L42.64,22.3262032 L41.425,22.3262032 L41.425,11.2412032 L42.805,11.0762032 L42.805,15.4112032 C43.3750029,14.6311993 44.1199954,14.2412032 45.04,14.2412032 C45.9400045,14.2412032 46.6549974,14.6036996 47.185,15.3287032 Z M45.9775,20.6687032 C46.3225017,20.1737007 46.495,19.4062084 46.495,18.3662032 C46.495,17.2961979 46.3350016,16.5237056 46.015,16.0487032 C45.6949984,15.5737008 45.2400029,15.3362032 44.65,15.3362032 C43.9499965,15.3362032 43.3350026,15.7461991 42.805,16.5662032 L42.805,20.3462032 C43.0150011,20.6762049 43.2724985,20.9362023 43.5775,21.1262032 C43.8825015,21.3162042 44.2049983,21.4112032 44.545,21.4112032 C45.155003,21.4112032 45.6324983,21.1637057 45.9775,20.6687032 Z M55.8925,15.3512032 C56.5075031,16.0912069 56.815,17.0961969 56.815,18.3662032 C56.815,19.1862073 56.6750014,19.9087001 56.395,20.5337032 C56.1149986,21.1587063 55.7100026,21.6437015 55.18,21.9887032 C54.6499973,22.3337049 54.0200036,22.5062032 53.29,22.5062032 C52.1799944,22.5062032 51.3150031,22.1362069 50.695,21.3962032 C50.0749969,20.6561995 49.765,19.6512096 49.765,18.3812032 C49.765,17.5611991 49.9049986,16.8387063 50.185,16.2137032 C50.4650014,15.5887001 50.8699973,15.1037049 51.4,14.7587032 C51.9300026,14.4137015 52.5649963,14.2412032 53.305,14.2412032 C54.4150056,14.2412032 55.2774969,14.6111995 55.8925,15.3512032 Z M51.25,18.3812032 C51.25,20.3912133 51.9299932,21.3962032 53.29,21.3962032 C54.6500068,21.3962032 55.33,20.3862133 55.33,18.3662032 C55.33,16.3561932 54.6550067,15.3512032 53.305,15.3512032 C51.9349931,15.3512032 51.25,16.3611931 51.25,18.3812032 Z M64.6525,15.3512032 C65.2675031,16.0912069 65.575,17.0961969 65.575,18.3662032 C65.575,19.1862073 65.4350014,19.9087001 65.155,20.5337032 C64.8749986,21.1587063 64.4700026,21.6437015 63.94,21.9887032 C63.4099974,22.3337049 62.7800037,22.5062032 62.05,22.5062032 C60.9399945,22.5062032 60.0750031,22.1362069 59.455,21.3962032 C58.8349969,20.6561995 58.525,19.6512096 58.525,18.3812032 C58.525,17.5611991 58.6649986,16.8387063 58.945,16.2137032 C59.2250014,15.5887001 59.6299974,15.1037049 60.16,14.7587032 C60.6900027,14.4137015 61.3249963,14.2412032 62.065,14.2412032 C63.1750056,14.2412032 64.0374969,14.6111995 64.6525,15.3512032 Z M60.01,18.3812032 C60.01,20.3912133 60.6899932,21.3962032 62.05,21.3962032 C63.4100068,21.3962032 64.09,20.3862133 64.09,18.3662032 C64.09,16.3561932 63.4150068,15.3512032 62.065,15.3512032 C60.6949932,15.3512032 60.01,16.3611931 60.01,18.3812032 Z M69.235,22.3262032 L67.855,22.3262032 L67.855,11.2412032 L69.235,11.0762032 L69.235,22.3262032 Z M70.87,17.9162032 L74.11,22.3262032 L72.46,22.3262032 L69.325,18.0062032 L72.235,14.4212032 L73.78,14.4212032 L70.87,17.9162032 Z M85.03,14.8937032 C85.4200019,15.3287054 85.615,15.9161995 85.615,16.6562032 L85.615,22.3262032 L84.235,22.3262032 L84.235,16.8512032 C84.235,15.8311981 83.8650037,15.3212032 83.125,15.3212032 C82.7349981,15.3212032 82.4050013,15.4337021 82.135,15.6587032 C81.8649986,15.8837043 81.5750015,16.2362008 81.265,16.7162032 L81.265,22.3262032 L79.885,22.3262032 L79.885,16.8512032 C79.885,15.8311981 79.5150037,15.3212032 78.775,15.3212032 C78.374998,15.3212032 78.0400013,15.4362021 77.77,15.6662032 C77.4999986,15.8962044 77.2150015,16.2462009 76.915,16.7162032 L76.915,22.3262032 L75.535,22.3262032 L75.535,14.4212032 L76.72,14.4212032 L76.84,15.5762032 C77.430003,14.6861988 78.1899954,14.2412032 79.12,14.2412032 C79.6100024,14.2412032 80.0274983,14.366202 80.3725,14.6162032 C80.7175017,14.8662045 80.9649993,15.216201 81.115,15.6662032 C81.4250015,15.2062009 81.7674981,14.8537044 82.1425,14.6087032 C82.5175019,14.363702 82.9599975,14.2412032 83.47,14.2412032 C84.1200032,14.2412032 84.6399981,14.458701 85.03,14.8937032 Z M93.88,21.1937032 C93.9900005,21.348704 94.1549989,21.4662028 94.375,21.5462032 L94.06,22.5062032 C93.6499979,22.456203 93.3200012,22.3412041 93.07,22.1612032 C92.8199987,21.9812023 92.6350006,21.7012051 92.515,21.3212032 C91.9849974,22.1112072 91.2000052,22.5062032 90.16,22.5062032 C89.3799961,22.5062032 88.7650022,22.2862054 88.315,21.8462032 C87.8649978,21.406201 87.64,20.8312068 87.64,20.1212032 C87.64,19.281199 87.942497,18.6362055 88.5475,18.1862032 C89.152503,17.736201 90.0099944,17.5112032 91.12,17.5112032 L92.335,17.5112032 L92.335,16.9262032 C92.335,16.3662004 92.2000013,15.9662044 91.93,15.7262032 C91.6599987,15.486202 91.2450028,15.3662032 90.685,15.3662032 C90.1049971,15.3662032 89.3950042,15.5062018 88.555,15.7862032 L88.21,14.7812032 C89.1900049,14.4212014 90.0999958,14.2412032 90.94,14.2412032 C91.8700046,14.2412032 92.5649977,14.4687009 93.025,14.9237032 C93.4850023,15.3787055 93.715,16.026199 93.715,16.8662032 L93.715,20.4812032 C93.715,20.8012048 93.7699995,21.0387024 93.88,21.1937032 Z M92.335,20.2412032 L92.335,18.4262032 L91.3,18.4262032 C89.8399927,18.4262032 89.11,18.9661978 89.11,20.0462032 C89.11,20.5162056 89.2249988,20.871202 89.455,21.1112032 C89.6850011,21.3512044 90.0249977,21.4712032 90.475,21.4712032 C91.2650039,21.4712032 91.8849977,21.0612073 92.335,20.2412032 Z M100.765,14.3312032 L100.51,15.6812032 C100.269999,15.6212029 100.040001,15.5912032 99.82,15.5912032 C99.3299976,15.5912032 98.9350015,15.7712014 98.635,16.1312032 C98.3349985,16.491205 98.1000009,17.0511994 97.93,17.8112032 L97.93,22.3262032 L96.55,22.3262032 L96.55,14.4212032 L97.735,14.4212032 L97.87,16.0262032 C98.0800011,15.4362003 98.3649982,14.9912047 98.725,14.6912032 C99.0850018,14.3912017 99.5049976,14.2412032 99.985,14.2412032 C100.265001,14.2412032 100.524999,14.2712029 100.765,14.3312032 Z M103.72,22.3262032 L102.34,22.3262032 L102.34,11.2412032 L103.72,11.0762032 L103.72,22.3262032 Z M105.355,17.9162032 L108.595,22.3262032 L106.945,22.3262032 L103.81,18.0062032 L106.72,14.4212032 L108.265,14.4212032 L105.355,17.9162032 Z M109.195,17.0462032 L113.44,17.0462032 L113.44,18.2162032 L109.195,18.2162032 L109.195,17.0462032 Z M121.3225,15.3512032 C121.937503,16.0912069 122.245,17.0961969 122.245,18.3662032 C122.245,19.1862073 122.105001,19.9087001 121.825,20.5337032 C121.544999,21.1587063 121.140003,21.6437015 120.61,21.9887032 C120.079997,22.3337049 119.450004,22.5062032 118.72,22.5062032 C117.609994,22.5062032 116.745003,22.1362069 116.125,21.3962032 C115.504997,20.6561995 115.195,19.6512096 115.195,18.3812032 C115.195,17.5611991 115.334999,16.8387063 115.615,16.2137032 C115.895001,15.5887001 116.299997,15.1037049 116.83,14.7587032 C117.360003,14.4137015 117.994996,14.2412032 118.735,14.2412032 C119.845006,14.2412032 120.707497,14.6111995 121.3225,15.3512032 Z M116.68,18.3812032 C116.68,20.3912133 117.359993,21.3962032 118.72,21.3962032 C120.080007,21.3962032 120.76,20.3862133 120.76,18.3662032 C120.76,16.3561932 120.085007,15.3512032 118.735,15.3512032 C117.364993,15.3512032 116.68,16.3611931 116.68,18.3812032 Z M130.405,22.3262032 L129.22,22.3262032 L129.115,21.0962032 C128.814999,21.5862057 128.470002,21.9437021 128.08,22.1687032 C127.689998,22.3937043 127.215003,22.5062032 126.655,22.5062032 C125.964997,22.5062032 125.425002,22.2962053 125.035,21.8762032 C124.644998,21.4562011 124.45,20.8612071 124.45,20.0912032 L124.45,14.4212032 L125.83,14.4212032 L125.83,19.9412032 C125.83,20.4812059 125.924999,20.8637021 126.115,21.0887032 C126.305001,21.3137043 126.614998,21.4262032 127.045,21.4262032 C127.815004,21.4262032 128.474997,20.9712078 129.025,20.0612032 L129.025,14.4212032 L130.405,14.4212032 L130.405,22.3262032 Z M137.245,21.9662032 C136.724997,22.326205 136.135003,22.5062032 135.475,22.5062032 C134.804997,22.5062032 134.282502,22.3137051 133.9075,21.9287032 C133.532498,21.5437013 133.345,20.9862069 133.345,20.2562032 L133.345,15.4862032 L131.965,15.4862032 L131.965,14.4212032 L133.345,14.4212032 L133.345,12.6362032 L134.725,12.4712032 L134.725,14.4212032 L136.6,14.4212032 L136.45,15.4862032 L134.725,15.4862032 L134.725,20.1962032 C134.725,20.6062053 134.797499,20.9037023 134.9425,21.0887032 C135.087501,21.2737041 135.329998,21.3662032 135.67,21.3662032 C136.000002,21.3662032 136.349998,21.2512044 136.72,21.0212032 L137.245,21.9662032 Z M139.0375,22.0487032 C138.742499,21.7437017 138.595,21.316206 138.595,20.7662032 L138.595,11.2412032 L139.975,11.0762032 L139.975,20.7362032 C139.975,20.9562043 140.0125,21.1162027 140.0875,21.2162032 C140.1625,21.3162037 140.289999,21.3662032 140.47,21.3662032 C140.660001,21.3662032 140.829999,21.3362035 140.98,21.2762032 L141.34,22.2362032 C141.009998,22.4162041 140.645002,22.5062032 140.245,22.5062032 C139.734997,22.5062032 139.332501,22.3537047 139.0375,22.0487032 Z M144.445,22.3262032 L143.065,22.3262032 L143.065,14.4212032 L144.445,14.4212032 L144.445,22.3262032 Z M144.445,10.8962032 C144.625001,11.0762041 144.715,11.3012019 144.715,11.5712032 C144.715,11.8412046 144.625001,12.0637023 144.445,12.2387032 C144.264999,12.4137041 144.030001,12.5012032 143.74,12.5012032 C143.459999,12.5012032 143.230001,12.4137041 143.05,12.2387032 C142.869999,12.0637023 142.78,11.8412046 142.78,11.5712032 C142.78,11.3012019 142.869999,11.0762041 143.05,10.8962032 C143.230001,10.7162023 143.459999,10.6262032 143.74,10.6262032 C144.030001,10.6262032 144.264999,10.7162023 144.445,10.8962032 Z M152.7025,14.8862032 C153.107502,15.3162054 153.31,15.9061995 153.31,16.6562032 L153.31,22.3262032 L151.93,22.3262032 L151.93,16.8512032 C151.93,16.2912004 151.825001,15.8962044 151.615,15.6662032 C151.404999,15.4362021 151.095002,15.3212032 150.685,15.3212032 C150.264998,15.3212032 149.895002,15.441202 149.575,15.6812032 C149.254998,15.9212044 148.955001,16.266201 148.675,16.7162032 L148.675,22.3262032 L147.295,22.3262032 L147.295,14.4212032 L148.48,14.4212032 L148.6,15.5912032 C148.880001,15.1712011 149.227498,14.8412044 149.6425,14.6012032 C150.057502,14.361202 150.514997,14.2412032 151.015,14.2412032 C151.735004,14.2412032 152.297498,14.4562011 152.7025,14.8862032 Z M162.025,18.8462032 L156.985,18.8462032 C157.045,19.7162076 157.264998,20.3562012 157.645,20.7662032 C158.025002,21.1762053 158.514997,21.3812032 159.115,21.3812032 C159.495002,21.3812032 159.844998,21.3262038 160.165,21.2162032 C160.485002,21.1062027 160.819998,20.9312044 161.17,20.6912032 L161.77,21.5162032 C160.929996,22.1762065 160.010005,22.5062032 159.01,22.5062032 C157.909994,22.5062032 157.052503,22.1462068 156.4375,21.4262032 C155.822497,20.7061996 155.515,19.7162095 155.515,18.4562032 C155.515,17.6361991 155.647499,16.9087064 155.9125,16.2737032 C156.177501,15.6387 156.557498,15.141205 157.0525,14.7812032 C157.547502,14.4212014 158.129997,14.2412032 158.8,14.2412032 C159.850005,14.2412032 160.654997,14.5861998 161.215,15.2762032 C161.775003,15.9662067 162.055,16.9211971 162.055,18.1412032 C162.055,18.3712044 162.045,18.606202 162.025,18.8462032 Z M160.69,17.7362032 C160.69,16.9561993 160.535002,16.3612053 160.225,15.9512032 C159.914998,15.5412012 159.450003,15.3362032 158.83,15.3362032 C157.699994,15.3362032 157.085001,16.1661949 156.985,17.8262032 L160.69,17.8262032 L160.69,17.7362032 Z M165.445,20.7212032 C165.645001,20.9212042 165.745,21.1662018 165.745,21.4562032 C165.745,21.7462047 165.645001,21.9937022 165.445,22.1987032 C165.244999,22.4037042 164.995002,22.5062032 164.695,22.5062032 C164.404999,22.5062032 164.160001,22.4037042 163.96,22.1987032 C163.759999,21.9937022 163.66,21.7462047 163.66,21.4562032 C163.66,21.1662018 163.759999,20.9212042 163.96,20.7212032 C164.160001,20.5212022 164.404999,20.4212032 164.695,20.4212032 C164.995002,20.4212032 165.244999,20.5212022 165.445,20.7212032 Z M171.535,14.4662032 C171.965002,14.616204 172.374998,14.8412017 172.765,15.1412032 L172.18,16.0112032 C171.819998,15.7812021 171.477502,15.6112038 171.1525,15.5012032 C170.827498,15.3912027 170.485002,15.3362032 170.125,15.3362032 C169.674998,15.3362032 169.320001,15.4287023 169.06,15.6137032 C168.799999,15.7987041 168.67,16.0512016 168.67,16.3712032 C168.67,16.6912048 168.792499,16.9412023 169.0375,17.1212032 C169.282501,17.3012041 169.724997,17.4762024 170.365,17.6462032 C171.245004,17.8662043 171.902498,18.1662013 172.3375,18.5462032 C172.772502,18.9262051 172.99,19.4461999 172.99,20.1062032 C172.99,20.8862071 172.687503,21.4812012 172.0825,21.8912032 C171.477497,22.3012053 170.740004,22.5062032 169.87,22.5062032 C168.669994,22.5062032 167.675004,22.1612067 166.885,21.4712032 L167.62,20.6312032 C168.290003,21.1412058 169.029996,21.3962032 169.84,21.3962032 C170.360003,21.3962032 170.772498,21.2887043 171.0775,21.0737032 C171.382502,20.8587021 171.535,20.5662051 171.535,20.1962032 C171.535,19.9262019 171.480001,19.708704 171.37,19.5437032 C171.259999,19.3787024 171.070001,19.2337038 170.8,19.1087032 C170.529999,18.9837026 170.135003,18.8512039 169.615,18.7112032 C168.774996,18.4912021 168.167502,18.1962051 167.7925,17.8262032 C167.417498,17.4562014 167.23,16.9862061 167.23,16.4162032 C167.23,16.0062012 167.352499,15.6337049 167.5975,15.2987032 C167.842501,14.9637015 168.182498,14.7037041 168.6175,14.5187032 C169.052502,14.3337023 169.539997,14.2412032 170.08,14.2412032 C170.620003,14.2412032 171.104998,14.3162025 171.535,14.4662032 Z M177.91,22.3262032 L176.245,22.3262032 L173.515,14.4212032 L175.015,14.4212032 L177.085,21.0962032 L179.14,14.4212032 L180.595,14.4212032 L177.91,22.3262032 Z M188.545,14.7812032 C188.244999,14.8812037 187.915002,14.9462031 187.555,14.9762032 C187.194998,15.0062034 186.755003,15.0212032 186.235,15.0212032 C187.165005,15.4412053 187.63,16.1061987 187.63,17.0162032 C187.63,17.8062072 187.360003,18.4512007 186.82,18.9512032 C186.279997,19.4512057 185.545005,19.7012032 184.615,19.7012032 C184.254998,19.7012032 183.920002,19.6512037 183.61,19.5512032 C183.489999,19.6312036 183.395,19.7387025 183.325,19.8737032 C183.255,20.0087039 183.22,20.1462025 183.22,20.2862032 C183.22,20.7162054 183.564997,20.9312032 184.255,20.9312032 L185.515,20.9312032 C186.045003,20.9312032 186.514998,21.0262023 186.925,21.2162032 C187.335002,21.4062042 187.652499,21.6662016 187.8775,21.9962032 C188.102501,22.3262049 188.215,22.7012011 188.215,23.1212032 C188.215,23.8912071 187.900003,24.4837011 187.27,24.8987032 C186.639997,25.3137053 185.720006,25.5212032 184.51,25.5212032 C183.659996,25.5212032 182.987502,25.4337041 182.4925,25.2587032 C181.997498,25.0837023 181.645001,24.821205 181.435,24.4712032 C181.224999,24.1212015 181.12,23.671206 181.12,23.1212032 L182.365,23.1212032 C182.365,23.4412048 182.424999,23.6937023 182.545,23.8787032 C182.665001,24.0637041 182.879998,24.2037027 183.19,24.2987032 C183.500002,24.3937037 183.939997,24.4412032 184.51,24.4412032 C185.340004,24.4412032 185.932498,24.3387042 186.2875,24.1337032 C186.642502,23.9287022 186.82,23.6212053 186.82,23.2112032 C186.82,22.8412014 186.680001,22.5612042 186.4,22.3712032 C186.119999,22.1812023 185.730003,22.0862032 185.23,22.0862032 L183.985,22.0862032 C183.314997,22.0862032 182.807502,21.9437046 182.4625,21.6587032 C182.117498,21.3737018 181.945,21.0162054 181.945,20.5862032 C181.945,20.3262019 182.019999,20.0762044 182.17,19.8362032 C182.320001,19.596202 182.534999,19.3812042 182.815,19.1912032 C182.354998,18.951202 182.017501,18.653705 181.8025,18.2987032 C181.587499,17.9437014 181.48,17.5112058 181.48,17.0012032 C181.48,16.4712006 181.612499,15.9962053 181.8775,15.5762032 C182.142501,15.1562011 182.507498,14.8287044 182.9725,14.5937032 C183.437502,14.358702 183.954997,14.2412032 184.525,14.2412032 C185.145003,14.2512033 185.664998,14.2287035 186.085,14.1737032 C186.505002,14.1187029 186.852499,14.0437037 187.1275,13.9487032 C187.402501,13.8537027 187.739998,13.7162041 188.14,13.5362032 L188.545,14.7812032 Z M183.3175,15.7187032 C183.032499,16.0437048 182.89,16.4712006 182.89,17.0012032 C182.89,17.5412059 183.034999,17.9737016 183.325,18.2987032 C183.615001,18.6237048 184.024997,18.7862032 184.555,18.7862032 C185.095003,18.7862032 185.507499,18.6287048 185.7925,18.3137032 C186.077501,17.9987016 186.22,17.5562061 186.22,16.9862032 C186.22,15.8161974 185.655006,15.2312032 184.525,15.2312032 C184.004997,15.2312032 183.602501,15.3937016 183.3175,15.7187032 Z"/>
  </g>
</svg>

<svg xmlns="http://www.w3.org/2000/svg" style="background:#fff" viewBox="0 0 300 96"><g fill="#0C0C0D" fill-rule="evenodd" transform="translate(46 32)"><path fill-opacity=".8" fill-rule="nonzero" d="M19.6 11.64l-.67-1.35L15.8 4 12 11.65l-1.5.27-6.71 1.2 5.82 6.26-.2 1.42-1 7.18 7.39-3.86 1.39.73 6 3.13-1.2-8.6.97-1.04 4.86-5.22-8.21-1.47zm10.19-1.23A2.2 2.2 0 0 1 31 14.08l-5.85 6.3 1.22 8.71a2.2 2.2 0 0 1-3.2 2.25L15.8 27.5l-7.38 3.85a2.19 2.19 0 0 1-2.28-.16 2.2 2.2 0 0 1-.92-2.1l1.22-8.72-5.85-6.3a2.2 2.2 0 0 1 1.23-3.66l8.16-1.45 3.85-7.74A2.18 2.18 0 0 1 15.8 0c.84 0 1.6.47 1.97 1.22l3.85 7.74 8.17 1.45z"/><path d="M47.19 15.33c.53.72.79 1.74.79 3.04a5.8 5.8 0 0 1-.38 2.16A3.25 3.25 0 0 1 46.52 22c-.47.34-1.01.52-1.65.52-.83 0-1.52-.35-2.1-1.05l-.13.87h-1.22V11.24l1.38-.16v4.33a2.65 2.65 0 0 1 2.24-1.17c.9 0 1.61.36 2.15 1.09zm-1.21 5.34c.34-.5.52-1.26.52-2.3 0-1.07-.16-1.85-.48-2.32a1.55 1.55 0 0 0-1.37-.71c-.7 0-1.31.4-1.84 1.23v3.78c.2.33.46.59.77.78.3.19.62.28.97.28.6 0 1.08-.25 1.43-.74zm9.91-5.32c.62.74.92 1.75.92 3.02 0 .82-.13 1.54-.41 2.16A3.3 3.3 0 0 1 55.18 22c-.53.34-1.16.52-1.89.52a3.2 3.2 0 0 1-2.6-1.11 4.55 4.55 0 0 1-.92-3.02c0-.82.13-1.54.41-2.17a3.3 3.3 0 0 1 1.22-1.45 3.41 3.41 0 0 1 1.9-.52c1.12 0 1.98.37 2.6 1.11zm-4.64 3.03c0 2.01.68 3.02 2.04 3.02 1.36 0 2.04-1.01 2.04-3.03 0-2.01-.67-3.02-2.02-3.02-1.38 0-2.06 1.01-2.06 3.03zm13.4-3.03c.62.74.92 1.75.92 3.02 0 .82-.13 1.54-.41 2.16A3.3 3.3 0 0 1 63.94 22c-.53.34-1.16.52-1.89.52a3.2 3.2 0 0 1-2.6-1.11 4.55 4.55 0 0 1-.93-3.02c0-.82.14-1.54.42-2.17a3.3 3.3 0 0 1 1.22-1.45 3.41 3.41 0 0 1 1.9-.52c1.12 0 1.98.37 2.6 1.11zm-4.64 3.03c0 2.01.68 3.02 2.04 3.02 1.36 0 2.04-1.01 2.04-3.03 0-2.01-.67-3.02-2.03-3.02-1.37 0-2.05 1.01-2.05 3.03zm9.23 3.95h-1.38V11.24l1.38-.16v11.25zm1.63-4.41l3.24 4.4h-1.65l-3.13-4.31 2.9-3.59h1.55l-2.91 3.5zm14.16-3.03c.39.44.58 1.03.58 1.77v5.67h-1.38v-5.48c0-1.02-.36-1.53-1.1-1.53-.4 0-.72.11-1 .34-.27.22-.55.58-.86 1.06v5.6h-1.38v-5.47c0-1.02-.37-1.53-1.11-1.53-.4 0-.74.12-1.01.35-.27.23-.55.58-.85 1.05v5.6h-1.39v-7.9h1.19l.12 1.16c.59-.9 1.35-1.34 2.28-1.34.49 0 .9.13 1.25.38s.6.6.74 1.05c.32-.46.66-.82 1.03-1.06.38-.25.82-.37 1.33-.37a2 2 0 0 1 1.56.65zm8.85 6.3a1 1 0 0 0 .5.36l-.32.96a2.1 2.1 0 0 1-.99-.35 1.58 1.58 0 0 1-.55-.84 2.65 2.65 0 0 1-2.36 1.19c-.78 0-1.4-.22-1.84-.66a2.3 2.3 0 0 1-.68-1.73c0-.84.3-1.48.9-1.93.61-.45 1.47-.68 2.58-.68h1.21v-.58c0-.56-.13-.96-.4-1.2s-.68-.36-1.25-.36c-.58 0-1.28.14-2.13.42l-.34-1a7.96 7.96 0 0 1 2.73-.55c.93 0 1.62.23 2.09.68.46.46.69 1.1.69 1.95v3.61c0 .32.05.56.16.71zm-1.55-.95v-1.81H91.3c-1.46 0-2.19.54-2.19 1.62 0 .47.11.82.34 1.06.24.24.57.36 1.02.36.8 0 1.41-.4 1.86-1.23zm8.44-5.9l-.26 1.34a2.84 2.84 0 0 0-.69-.09c-.49 0-.88.18-1.18.54-.3.36-.54.92-.71 1.68v4.52h-1.38v-7.9h1.19l.13 1.6a3 3 0 0 1 .85-1.34c.37-.3.78-.45 1.27-.45.28 0 .53.03.78.1zm2.95 7.99h-1.38V11.24l1.38-.16v11.25zm1.64-4.41l3.23 4.4h-1.65l-3.13-4.31 2.91-3.59h1.55l-2.91 3.5zm3.83-.87h4.25v1.17h-4.25v-1.17zm12.13-1.7c.62.74.93 1.75.93 3.02 0 .82-.14 1.54-.42 2.16A3.3 3.3 0 0 1 120.6 22c-.53.34-1.16.52-1.89.52a3.2 3.2 0 0 1-2.6-1.11 4.55 4.55 0 0 1-.93-3.02c0-.82.14-1.54.42-2.17a3.3 3.3 0 0 1 1.22-1.45 3.41 3.41 0 0 1 1.9-.52c1.12 0 1.98.37 2.6 1.11zm-4.64 3.03c0 2.01.68 3.02 2.04 3.02 1.36 0 2.04-1.01 2.04-3.03 0-2.01-.67-3.02-2.03-3.02-1.37 0-2.05 1.01-2.05 3.03zm13.72 3.95h-1.18l-.1-1.23c-.3.49-.65.84-1.04 1.07a2.8 2.8 0 0 1-1.43.34 2.1 2.1 0 0 1-1.62-.63 2.53 2.53 0 0 1-.58-1.79v-5.67h1.38v5.52c0 .54.1.92.28 1.15.2.22.5.34.94.34.77 0 1.42-.46 1.98-1.37v-5.64h1.38v7.9zm6.84-.36c-.52.36-1.1.54-1.77.54-.67 0-1.19-.2-1.56-.58-.38-.39-.56-.94-.56-1.67v-4.77h-1.38v-1.07h1.38v-1.78l1.38-.17v1.95h1.87l-.15 1.07h-1.72v4.7c0 .42.07.71.21.9.15.18.39.28.73.28a2 2 0 0 0 1.05-.35l.53.95zm1.8.08c-.3-.3-.44-.73-.44-1.28v-9.53l1.38-.16v9.66c0 .22.03.38.1.48.08.1.21.15.39.15.19 0 .36-.03.51-.1l.36.97c-.33.18-.7.27-1.1.27a1.6 1.6 0 0 1-1.2-.46zm5.4.28h-1.38v-7.9h1.38v7.9zm0-11.43c.19.18.28.4.28.67a.9.9 0 0 1-.28.67.97.97 0 0 1-.7.26.95.95 0 0 1-.69-.26.9.9 0 0 1-.27-.67c0-.27.09-.5.27-.67a.93.93 0 0 1 .69-.27c.29 0 .52.09.7.27zm8.26 3.99c.4.43.61 1.02.61 1.77v5.67h-1.38v-5.48c0-.56-.1-.95-.31-1.18-.22-.23-.52-.35-.94-.35-.42 0-.78.12-1.1.36-.33.24-.62.59-.9 1.04v5.6h-1.39v-7.9h1.19l.12 1.17c.28-.42.63-.75 1.04-.99a2.7 2.7 0 0 1 1.38-.36c.72 0 1.28.22 1.68.65zm9.33 3.96h-5.04c.05.87.27 1.5.66 1.92.38.4.86.61 1.47.61.38 0 .72-.05 1.04-.16.33-.11.66-.29 1.01-.53l.6.83c-.84.66-1.76.99-2.76.99a3.2 3.2 0 0 1-2.57-1.08 4.43 4.43 0 0 1-.93-2.97c0-.82.14-1.55.4-2.19.27-.63.65-1.13 1.14-1.49a2.9 2.9 0 0 1 1.75-.54c1.05 0 1.85.35 2.41 1.04.57.69.84 1.64.84 2.86 0 .23 0 .47-.03.7zm-1.34-1.11c0-.78-.15-1.38-.47-1.79-.3-.4-.77-.61-1.39-.61-1.13 0-1.74.83-1.84 2.49h3.7v-.1zm4.75 2.98c.2.2.3.45.3.74s-.1.53-.3.74a1 1 0 0 1-.75.3.99.99 0 0 1-.73-.3c-.2-.2-.3-.45-.3-.74a1 1 0 0 1 .3-.74 1 1 0 0 1 .73-.3c.3 0 .55.1.75.3zm6.1-6.25c.43.15.83.37 1.22.67l-.58.87c-.36-.23-.7-.4-1.03-.5a3.18 3.18 0 0 0-1.03-.17c-.45 0-.8.09-1.06.27a.88.88 0 0 0-.39.76c0 .32.12.57.37.75.24.18.68.36 1.33.53.88.22 1.53.52 1.97.9.43.38.65.9.65 1.56 0 .78-.3 1.37-.9 1.78-.61.41-1.35.62-2.22.62-1.2 0-2.2-.35-2.99-1.04l.74-.84c.67.51 1.41.77 2.22.77.52 0 .93-.11 1.24-.33.3-.21.45-.5.45-.87 0-.27-.05-.5-.16-.66-.11-.16-.3-.3-.57-.43a7.82 7.82 0 0 0-1.19-.4 4.04 4.04 0 0 1-1.82-.88 1.9 1.9 0 0 1-.56-1.41c0-.41.12-.79.37-1.12.24-.34.58-.6 1.02-.78a4.4 4.4 0 0 1 2.92-.05zm6.37 7.86h-1.66l-2.74-7.9h1.5l2.08 6.67 2.05-6.68h1.46l-2.69 7.9zm10.63-7.55c-.3.1-.62.17-.98.2-.37.03-.8.04-1.32.04.93.42 1.39 1.09 1.39 2 0 .79-.27 1.43-.81 1.93s-1.27.75-2.2.75c-.37 0-.7-.05-1.01-.15a.85.85 0 0 0-.29.32.89.89 0 0 0-.1.42c0 .43.34.64 1.03.64h1.26c.54 0 1 .1 1.42.29.4.19.72.45.95.78.22.33.34.7.34 1.12a2 2 0 0 1-.95 1.78c-.63.41-1.55.62-2.76.62-.85 0-1.52-.09-2.02-.26-.5-.18-.84-.44-1.06-.79a2.6 2.6 0 0 1-.31-1.35h1.25c0 .32.05.57.17.76.13.18.34.32.65.42.31.1.75.14 1.32.14.83 0 1.42-.1 1.78-.3a1 1 0 0 0 .53-.93.95.95 0 0 0-.42-.84 2.07 2.07 0 0 0-1.17-.28h-1.24c-.68 0-1.18-.15-1.53-.43a1.33 1.33 0 0 1-.52-1.07c0-.26.08-.51.23-.75.15-.24.36-.46.65-.65-.47-.24-.8-.54-1.02-.9a2.46 2.46 0 0 1-.32-1.29 2.61 2.61 0 0 1 1.5-2.4 3.4 3.4 0 0 1 1.55-.36c.62.01 1.13-.01 1.56-.07a5.4 5.4 0 0 0 1.04-.22c.27-.1.61-.23 1.01-.41l.4 1.24zm-5.22.94c-.29.32-.43.75-.43 1.28 0 .54.14.97.44 1.3.29.32.7.49 1.22.49.55 0 .96-.16 1.24-.48.29-.31.43-.75.43-1.32 0-1.17-.56-1.76-1.7-1.76-.52 0-.92.16-1.2.49z"/></g></svg>
